X: 082
T: Capt Ross's Reel
R: reel
B: Robert Bremner "A Collection of Scots Reels or Country Dances" p.8 #2
S: http://imslp.org/wiki/A_Collection_of_Scots_Reels_or_Country_Dances_(Bremner,_Robert)
Z: 2013 John Chambers <jc:trillian.mit.edu>
M: C|
L: 1/8
K: A
% - - - - - - - - - - - - - - - - - - - - - - - - -
V: 1
|:\
E3(c TB>A)FB | A/A/A (TcA) eAcA |\
E3c TB>AFf | (ef/g/ a)c A/A/A A2 :|
|:\
(ef/g/ a)c (TB>A)Ff | (ef/g/ a)e fea(e |\
f>a)ec TB>AFf | (ef/g/ a)c A/A/A A2 :|
% - - - - - - - - - - - - - - - - - - - - - - - - -
V: 2 clef=bass middle=d
|:\
a2a2 b2b2 | a2a2 a2a2 |\
a2a2 b2b2 | a2e2 A2A2 :|\
|: a2a2
b2b2 | a2a2 a2a2 | d'2c'2 b2b2 | a2e2 A2A2 :|
% - - - - - - - - - - - - - - - - - - - - - - - - -

%%sep 1 1 500
%%sep 1 1 500
